!!!COM: Music21
!!!OTL: Vals de Sabela
!!!OMV: pezas_valses_vals-de-sabela_valse-de-sabela-partitura.musicxml
**kern
*I"Gaita
*I'Bag
*clefG^2
*k[]
*M3/4
*MM180
=1
!LO:TX:a:t=[quarter]=180
2gg
[4ee
=
4ee]
4dd
4cc
=
2ccc
4aa
=
2.gg
=
4ff
8cccL
8aaJ
8ffL
8aaJ
=
4ee
8cccL
8ggJ
8eeL
8ggJ
=
4ff
4aa
4bb
=
2ccc
[4gg
=
4gg]
4ee
4dd
=
4cc
2ccc
=
4aa
2gg
!!linebreak:original
=
4ff
4ee
4ccc
=
4ee
4dd
4ee
!!linebreak:original
=
4dd
[2cc
=
2.cc]
=||
*M3/4
*MM180
!LO:TX:a:t=[quarter]=180
2gg
[4ee
=
4ee]
4dd
4cc
=
2ccc
4aa
=
2.gg
=
4ff
8cccL
8aaJ
8ffL
8aaJ
=
4ee
8cccL
8ggJ
8eeL
8ggJ
=
4ff
4aa
4bb
=
2ccc
[4gg
=
4gg]
4ee
4dd
!!linebreak:original
=
4cc
2ccc
=
4aa
2gg
=
4ff
4ee
4ccc
=
4ee
4dd
4ee
!!linebreak:original
=
4dd
[2cc
=
2.cc]
=||
*k[b-e-a-]
8ee-L
8ffJ
8ee-L
8ddJ
8ccL
8bnJ
=
4cc
4ee-
4gg
=
4aa-
4ccc
4aa-
=
2.gg
=
8aa-L
8bb-J
8aa-L
8ggJ
8ffL
8aa-J
=
4gg
4ccc
4gg
=
4ff
4aa-
4ff
=
4.ee-
8ff
4gg
!!linebreak:original
=
8ee-L
8ffJ
8ee-L
8ddJ
8ccL
8bnJ
=
4cc
4ee-
4gg
=
4aa-
4ccc
4aa-
=
2.gg
=
8ffL
8ggJ
8ffL
8ee-J
8ddL
8ffJ
=
4ee-
4dd
4cc
=
4dd
4.ee-
8dd
=
2.cc
=||
8ee-L
8ffJ
8ee-L
8ddJ
8ccL
8bnJ
!!linebreak:original
=
4cc
4ee-
4gg
=
4aa-
4ccc
4aa-
=
2.gg
=
8aa-L
8bb-J
8aa-L
8ggJ
8ffL
8aa-J
=
4gg
4ccc
4gg
=
4ff
4aa-
4ff
=
4.ee-
8ff
4gg
!!linebreak:original
=
8ee-L
8ffJ
8ee-L
8ddJ
8ccL
8bnJ
=
4cc
4ee-
4gg
=
4aa-
4ccc
4aa-
=
2.gg
=
8ffL
8ggJ
8ffL
8ee-J
8ddL
8ffJ
=
4ee-
4dd
4cc
=
4dd
4.ee-
8dd
=
8cc
8r
4r
4r
==
*-
